X:1
T:Title
%%score { 1 | 2 }
L:1/8
Q:1/4=100
M:4/4
K:Bb
V:1 treble nm="Grand Piano"
V:2 bass 
V:1
 [DB]2 [DB]2 [EG][DF][B,D][CE] | [DF]2 [DF]2 [DG] [DF]3 | c2 c2 cAGF | [FB]2 [Fd]2 [Fc]4 | %4
w: C.~Austin~Miles * * * * *||||
 [DB]2 [DB]2 [EG][DF][B,D][CE] | [DF]2 [DF]2 [DG] [DF]3 | d d3 d2 c2 |[M:3/4] [DB]6 | %8
w: ||||
[M:1/4] [F,F]2 |[M:4/4] [DB]>[DB] [DB][DB] [EG] [DF]2 [DB] | [Fd]2 [Ec]2 [DB]3 [DB] | %11
w: |||
 c>c cd cAF[DFB] | [CFA]2 [B,=EG]2 [A,F]3 [A,F] | [Fd]>[Fd] [Fd][Ge] [Fd] [DB]2 [FB] | %14
w: |||
 [GB]>[Gc] [GB][EG] [DF]3 [DF] | %15
w: |
[M:17/16] [EG][Q:1/4=88][GB][Gc]<[GB]F[FB][Ge]3/2[Gc][Q:1/4=98][Q:1/4=97][Q:1/4=95][Q:1/4=94][Q:1/4=92][Q:1/4=91][Q:1/4=89][Q:1/4=86][Q:1/4=84][Q:1/4=83][Q:1/4=81][Q:1/4=80][Q:1/4=78][Q:1/4=77] | %16
w: |
[M:4/4] d2 c2 B4 |] %17
w: |
V:2
 [B,,F,]2 [B,,F,]2 [B,,B,][B,,B,][B,,F,][B,,F,] | [B,,B,]2 [B,,B,]2 [B,,B,] [B,,B,]3 | %2
 [F,A,F]2 [F,A,F]2 [F,A,F][F,CF][F,B,F][F,A,] | [D,B,]2 [B,,B,]2 [F,A,]4 | %4
 [B,,F,]2 [B,,F,]2 [B,,B,][B,,B,][B,,F,][B,,F,] | [B,,B,]2 [B,,B,]2 [B,,B,] [B,,B,]3 | %6
 [B,F] [B,F]3[K:bass] [F,B,F]2 [F,A,E]2 |[M:3/4] [B,,F,]6 |[M:1/4] z2 | %9
[M:4/4] [B,,F,]>[B,,F,] [B,,F,][B,,F,] [B,,B,] [B,,B,]2 [B,,B,] | %10
 [F,B,]2 [F,A,]2 [B,,B,]3 [B,,B,] | [F,A,F]>[F,A,F] [F,A,F][F,B,F] [F,A,F][F,CF][F,A,]B,, | %12
 C,2 C,2 F,3 F, | [B,,B,]>[B,,B,] [B,,B,][B,,B,] [B,,B,] [B,,B,]2 [D,B,] | %14
 [E,E]>[E,E] [E,E][E,B,] [B,,B,]3 [B,,B,] | %15
[M:17/16] [E,B,][E,E][E,E]<[E,E][D,B,][D,B,][C,C]3/2[E,C] | %16
[M:4/4][K:treble] [F,B,F]2 [F,EF]2 [B,DF]4 |] %17

